X:0077
T:The Scots Queen.
S:Aird v5 p45
M:C
L:1/8
Q:1/4=80 "Slow"
I: :: :|
K:G
z2|   G3 A BAGF|E2e edcB|ABcd ecBA|G2BG A2cA|BdcB B2AB|
cdef gdcB|ABcd efge|f2d2 d4||
fa|d2f2`f2|a2 a>f a2 e>f|g2ge f2fd|e2ef gfed|e2ef Hg4  |
efed Befd|Bgfe d/d/d df|
  defd geaf|edef gedF|GBed FDD
g|fdag     fddf|e=cgf ecce|fdag     fdec|dBAd FDD
g|fdag     fddf|e=cgf ecce|dcdB  c2  A2 |GABd g2a2|GBd efg|c'a a2|]